X:1
T:Title
%%score { ( 1 4 ) | ( 2 3 ) }
L:1/8
Q:1/4=100
M:4/4
K:Ab
V:1 treble nm="Grand Piano"
V:4 treble 
V:2 bass 
V:3 bass 
V:1
 A2 GF E2 A2 | c2 B2 [DB]2 [CA]2 | c2 BA GABA | z2 [=DF]2 z4 | E2 FG [CA]2 [CE]2 | z4 z2 A2 | %6
w: Edward~W.~Leinbach * * * *||||||
 c2 f2 edcB |[M:8/4] A2 G2 [CA]4 z8 |[M:4/4] [DA]4 [CA]4 |] %9
w: |||
V:2
 A,2 G,F, E,2 [E,C]2 | [E,E]2 [E,D]2 [A,,A,]2 [A,,A,]2 | z2 .[G,E]2 [B,E]2 E2 | %3
 [B,E]2 .[B,,B,]2 [E,G,B,]4 | [E,G,B,]2 [E,B,D]2 [A,,A,]2 [A,,A,]2 | z2 E2[K:treble] z4 | %6
 [F,=A,F]2 [A,CF]2 [B,F]2[K:bass] [D,B,]2 |[M:8/4] [E,CE]2 [E,B,D]2 [A,,A,]4 z8 | %8
[M:4/4] [D,F,]4 [A,,E,]4 |] %9
V:3
 x8 | x8 | [A,E]2 B,-[F,B,=D] E,F,[G,B,][A,C] | x8 | x8 | [E,B,E]2 F,G,[K:treble] [A,E]2 .[A,CE]2 | %6
 x6[K:bass] x2 |[M:8/4] x16 |[M:4/4] x8 |] %9
V:4
 x8 | x8 | x8 | G2 z A, E4 | x8 | G2 AB c2 z _G, | z4 z2 F2 |[M:8/4] x16 |[M:4/4] x8 |] %9

